X:529
T:Dwyer's Hornpipe
M:C
L:1/8
K:G
z2 ba gedB||"G"G2 GA G2 Bd|"C"e2 de "Em"gedB|"C"e2 de "Em"gedB|"D"A2 AG "Em"ABGE|
"G"G2 GA G2 Bd|"C"e2 de "Em"gedB|"C"eg"G"de Bd"D"AB|"G"G2 (3GGG G2 (3def:|
|:"G"g2 g2 "D"a2 a2|"Em"bage e2 "G"dB|"C"e2 "G"de "Em"gedB|"D"A2 AG "Em"ABGE|
"G"gfgb "D"ag a2|"Em"bage e2 "G"dB|"C"eg"G"de Bd"D"AB|"G"G2 GA G2 (3def:||

%%scale 0.8
%%newpage

